neru-light-classic/32x32/apps/meshlab.svg

<?xml version="1.0" encoding="UTF-8" standalone="no"?>
<svg
   xmlns:dc="http://purl.org/dc/elements/1.1/"
   xmlns:cc="http://creativecommons.org/ns#"
   xmlns:rdf="http://www.w3.org/1999/02/22-rdf-syntax-ns#"
   xmlns:svg="http://www.w3.org/2000/svg"
   xmlns="http://www.w3.org/2000/svg"
   xmlns:sodipodi="http://sodipodi.sourceforge.net/DTD/sodipodi-0.dtd"
   xmlns:inkscape="http://www.inkscape.org/namespaces/inkscape"
   width="32"
   height="32"
   version="1"
   id="svg26"
   sodipodi:docname="meshlab.svg"
   inkscape:version="0.92.2 2405546, 2018-03-11">
  <metadata
     id="metadata32">
    <rdf:RDF>
      <cc:Work
         rdf:about="">
        <dc:format>image/svg+xml</dc:format>
        <dc:type
           rdf:resource="http://purl.org/dc/dcmitype/StillImage" />
        <dc:title />
      </cc:Work>
    </rdf:RDF>
  </metadata>
  <defs
     id="defs30" />
  <sodipodi:namedview
     pagecolor="#ffffff"
     bordercolor="#666666"
     borderopacity="1"
     objecttolerance="10"
     gridtolerance="10"
     guidetolerance="10"
     inkscape:pageopacity="0"
     inkscape:pageshadow="2"
     inkscape:window-width="1680"
     inkscape:window-height="972"
     id="namedview28"
     showgrid="false"
     inkscape:zoom="8"
     inkscape:cx="-13.789385"
     inkscape:cy="19.676122"
     inkscape:window-x="1360"
     inkscape:window-y="0"
     inkscape:window-maximized="1"
     inkscape:current-layer="svg26" />
  <path
     style="opacity:1;fill:#666666;fill-opacity:1;fill-rule:evenodd;stroke:none;stroke-width:1.03534329;stroke-linecap:round;stroke-linejoin:bevel;stroke-miterlimit:4;stroke-dasharray:none;stroke-dashoffset:0;stroke-opacity:1"
     d="M 7.4726562 1.8984375 C 4.3840055 1.8984375 1.8984375 4.3840055 1.8984375 7.4726562 L 1.8984375 24.527344 C 1.8984375 27.615995 4.3840055 30.101563 7.4726562 30.101562 L 21.425781 30.101562 L 24.527344 30.101562 C 27.615995 30.101563 30.101563 27.615995 30.101562 24.527344 L 30.101562 7.4726562 C 30.101562 7.4234376 30.075474 7.3828896 30.074219 7.3339844 C 29.996705 4.3139072 27.566776 1.8984375 24.527344 1.8984375 L 7.4726562 1.8984375 z "
     id="path1170" />
  <path
     style="fill:#f2f2f2;fill-opacity:1;stroke:none;stroke-width:0.11152522;stroke-linecap:butt;stroke-linejoin:miter;stroke-miterlimit:4;stroke-dasharray:none;stroke-opacity:1"
     d="M 24.320988,12.186549 C 16.609329,9.909356 10.076202,9.50083 5.7433669,16.111657 c -0.6200657,1.039351 0.2417075,1.31747 0.6088496,2.215567 4.2640875,4.071739 15.4265385,2.126949 12.0091385,2.502529 2.695355,-0.964778 3.654482,-3.91256 4.007938,-7.562804 z"
     id="path1176"
     inkscape:connector-curvature="0"
     sodipodi:nodetypes="cccccc" />
  <circle
     style="fill:#73a747;fill-opacity:1;stroke:none;stroke-width:0.132715;stroke-miterlimit:4;stroke-dasharray:none;stroke-opacity:1"
     id="path869"
     cx="12.999712"
     cy="14.67366"
     r="5.0801387" />
  <path
     style="fill:#666666;fill-opacity:1;stroke:none;stroke-width:1.32877636px;stroke-linecap:butt;stroke-linejoin:miter;stroke-opacity:1"
     d="M 5.6320396,18.395013 C 10.218696,10.29755 21.915609,11.715055 25.380177,13.099644 L 17.87313,3.9634098 2.9517812,14.263135 Z"
     id="path1167"
     inkscape:connector-curvature="0"
     sodipodi:nodetypes="ccccc" />
  <circle
     style="fill:#060905;fill-opacity:1;stroke:none;stroke-width:0.13287765;stroke-miterlimit:4;stroke-dasharray:none;stroke-opacity:1"
     id="path871"
     cx="12.999712"
     cy="14.67366"
     r="1.7199215" />
  <circle
     style="fill:#ffffff;fill-opacity:1;stroke:none;stroke-width:0.13287765;stroke-miterlimit:4;stroke-dasharray:none;stroke-opacity:1"
     id="path873"
     cx="11.756035"
     cy="13.660893"
     r="0.73255914" />
  <path
     style="fill:#000000;fill-opacity:1;stroke:none;stroke-width:0.1;stroke-linecap:butt;stroke-linejoin:miter;stroke-miterlimit:4;stroke-dasharray:none;stroke-opacity:1"
     d="M 17.298828 11.275391 C 13.3224 11.238197 8.192891 12.582994 5.65625 17.945312 C 11.547178 23.556822 23.428024 23.577699 22.628906 13.699219 C 25.944201 14.004978 27.044086 12.695193 29.080078 12.068359 C 26.03436 13.12903 24.789421 13.027976 21.654297 11.935547 C 20.674571 11.594163 19.106296 11.292297 17.298828 11.275391 z M 16.089844 12.414062 C 17.87367 12.336131 19.788898 12.620527 21.744141 13.353516 C 22.178607 25.735387 6.9119203 19.603118 6.5410156 17.591797 L 6.5273438 17.597656 C 7.9149636 15.001452 11.584927 12.610874 16.089844 12.414062 z "
     id="path926" />
</svg>

<svg xmlns="http://www.w3.org/2000/svg" width="32" height="32" version="1"><path d="M7.473 1.898a5.561 5.561 0 0 0-5.575 5.575v17.054a5.561 5.561 0 0 0 5.575 5.575h17.054a5.561 5.561 0 0 0 5.575-5.575V7.473c0-.05-.027-.09-.028-.139-.077-3.02-2.507-5.436-5.547-5.436H7.473z" fill="#666" fill-rule="evenodd"/><path d="M24.321 12.187C16.609 9.909 10.076 9.5 5.743 16.112c-.62 1.039.242 1.317.61 2.215 4.263 4.072 15.426 2.127 12.008 2.503 2.696-.965 3.655-3.913 4.008-7.563z" fill="#f2f2f2"/><circle cx="13" cy="14.674" r="5.08" fill="#73a747"/><path d="M5.632 18.395c4.587-8.097 16.284-6.68 19.748-5.295l-7.507-9.137-14.921 10.3z" fill="#666"/><circle cx="13" cy="14.674" r="1.72" fill="#060905"/><circle cx="11.756" cy="13.661" r=".733" fill="#fff"/><path d="M17.299 11.275c-3.977-.037-9.106 1.308-11.643 6.67 5.891 5.612 17.772 5.633 16.973-4.246 3.315.306 4.415-1.004 6.451-1.63-3.046 1.06-4.29.959-7.426-.133-.98-.342-2.548-.644-4.355-.66zm-1.21 1.14c1.785-.079 3.7.206 5.655.939.435 12.381-14.832 6.25-15.203 4.238l-.014.006C7.915 15 11.585 12.61 16.09 12.414z"/></svg>
